_includes/icons/ios-agreement.svg

<svg fill="#666" height="50" viewBox="0 0 50 50" width="50" xmlns="http://www.w3.org/2000/svg"><path d="m7 2v46h36v-33.40625l-.28125-.3125-12-12-.3125-.28125zm2 2h20v12h12v30h-32zm22 1.4375 8.5625 8.5625h-8.5625zm-17 4.5625v2h13v-2zm0 4v2h13v-2zm0 4v2h23v-2zm0 4v2h23v-2zm0 4v2h23v-2zm6.15625 4.5625c-1.136719 0-2.0625.726563-2.6875 1.65625-.625.929688-1 2.125-1 3.4375 0 1.101563.34375 2.296875 1 3.3125.085938.132813.242188.214844.34375.34375-.324219.289063-.9375.90625-.9375.90625-.320312.195313-.507812.550781-.480469.925781.023438.375.257813.703125.605469.851563.34375.148437.742188.089844 1.03125-.152344 0 0 .839844-.816406 1.4375-1.34375.367188.144531.699219.375 1.125.375 2.523438 0 4.195313-1.359375 5.15625-2.59375.28125-.363281.433594-.625.625-.9375.070313.214844.132813.417969.21875.625.0625.148438.132813.296875.25.46875.117188.171875.339844.5625.96875.5625.667969 0 1.078125-.320312 1.46875-.59375.390625-.273437.742188-.578125 1.125-.875.765625-.597656 1.535156-1.0625 2.09375-1.0625.359375.003906.695313-.183594.878906-.496094.179688-.3125.179688-.695312 0-1.007812-.183593-.3125-.519531-.5-.878906-.496094-1.40625 0-2.472656.8125-3.3125 1.46875-.359375.28125-.648437.527344-.90625.71875-.03125-.09375-.058594-.148437-.09375-.25-.109375-.320312-.246094-.644531-.40625-.96875-.082031-.164062-.152344-.351562-.3125-.53125-.160156-.179687-.464844-.4375-.9375-.4375-.648437 0-.871094.394531-1.03125.59375s-.28125.378906-.40625.59375c-.253906.425781-.535156.929688-.90625 1.40625-.671875.863281-1.632812 1.574219-3.15625 1.71875 1.027344-1.382812 1.9375-3.105469 1.9375-5.1875 0-.675781-.125-1.414062-.59375-2.03125-.46875-.617187-1.300781-1-2.21875-1zm0 2c.4375 0 .519531.082031.625.21875s.1875.433594.1875.8125c0 1.59375-.867187 3.089844-1.8125 4.28125-.417969-.648437-.6875-1.558594-.6875-2.21875 0-.917969.277344-1.777344.65625-2.34375s.8125-.75 1.03125-.75z"/></svg>

<svg xmlns="http://www.w3.org/2000/svg" viewBox="0 0 50 50" width="50" height="50" fill="#666"><path d="M 7 2 L 7 48 L 43 48 L 43 14.59375 L 42.71875 14.28125 L 30.71875 2.28125 L 30.40625 2 Z M 9 4 L 29 4 L 29 16 L 41 16 L 41 46 L 9 46 Z M 31 5.4375 L 39.5625 14 L 31 14 Z M 14 10 L 14 12 L 27 12 L 27 10 Z M 14 14 L 14 16 L 27 16 L 27 14 Z M 14 18 L 14 20 L 37 20 L 37 18 Z M 14 22 L 14 24 L 37 24 L 37 22 Z M 14 26 L 14 28 L 37 28 L 37 26 Z M 20.15625 30.5625 C 19.019531 30.5625 18.09375 31.289063 17.46875 32.21875 C 16.84375 33.148438 16.46875 34.34375 16.46875 35.65625 C 16.46875 36.757813 16.8125 37.953125 17.46875 38.96875 C 17.554688 39.101563 17.710938 39.183594 17.8125 39.3125 C 17.488281 39.601563 16.875 40.21875 16.875 40.21875 C 16.554688 40.414063 16.367188 40.769531 16.394531 41.144531 C 16.417969 41.519531 16.652344 41.847656 17 41.996094 C 17.34375 42.144531 17.742188 42.085938 18.03125 41.84375 C 18.03125 41.84375 18.871094 41.027344 19.46875 40.5 C 19.835938 40.644531 20.167969 40.875 20.59375 40.875 C 23.117188 40.875 24.789063 39.515625 25.75 38.28125 C 26.03125 37.917969 26.183594 37.65625 26.375 37.34375 C 26.445313 37.558594 26.507813 37.761719 26.59375 37.96875 C 26.65625 38.117188 26.726563 38.265625 26.84375 38.4375 C 26.960938 38.609375 27.183594 39 27.8125 39 C 28.480469 39 28.890625 38.679688 29.28125 38.40625 C 29.671875 38.132813 30.023438 37.828125 30.40625 37.53125 C 31.171875 36.933594 31.941406 36.46875 32.5 36.46875 C 32.859375 36.472656 33.195313 36.285156 33.378906 35.972656 C 33.558594 35.660156 33.558594 35.277344 33.378906 34.964844 C 33.195313 34.652344 32.859375 34.464844 32.5 34.46875 C 31.09375 34.46875 30.027344 35.28125 29.1875 35.9375 C 28.828125 36.21875 28.539063 36.464844 28.28125 36.65625 C 28.25 36.5625 28.222656 36.507813 28.1875 36.40625 C 28.078125 36.085938 27.941406 35.761719 27.78125 35.4375 C 27.699219 35.273438 27.628906 35.085938 27.46875 34.90625 C 27.308594 34.726563 27.003906 34.46875 26.53125 34.46875 C 25.882813 34.46875 25.660156 34.863281 25.5 35.0625 C 25.339844 35.261719 25.21875 35.441406 25.09375 35.65625 C 24.839844 36.082031 24.558594 36.585938 24.1875 37.0625 C 23.515625 37.925781 22.554688 38.636719 21.03125 38.78125 C 22.058594 37.398438 22.96875 35.675781 22.96875 33.59375 C 22.96875 32.917969 22.84375 32.179688 22.375 31.5625 C 21.90625 30.945313 21.074219 30.5625 20.15625 30.5625 Z M 20.15625 32.5625 C 20.59375 32.5625 20.675781 32.644531 20.78125 32.78125 C 20.886719 32.917969 20.96875 33.214844 20.96875 33.59375 C 20.96875 35.1875 20.101563 36.683594 19.15625 37.875 C 18.738281 37.226563 18.46875 36.316406 18.46875 35.65625 C 18.46875 34.738281 18.746094 33.878906 19.125 33.3125 C 19.503906 32.746094 19.9375 32.5625 20.15625 32.5625 Z"/></svg>
